X: 26365
T: Merrily Kissed The Quaker
R: slide
M: 12/8
K: Gmajor
|:GAB D2B c2A BAG|G2E DEG ABA AGE|
GAB D2B c2A BAG|GAB D2E G2A B2A:|
|:G2B d^cd edB d2B|G2B d2B ABA AGE|
G2B d^cd edB d2B|GAB D2E G2A B2A:|
|:G2B d^cd edB g2e|dBA GBd e2f g3|
ged BAG d2B AGE|GAB D2E G2A B2A:|

